Numix/scalable/mimetypes/x-office-spreadsheet-symbolic.svg

<?xml version="1.0" encoding="UTF-8" standalone="no"?>
<svg
   xmlns:dc="http://purl.org/dc/elements/1.1/"
   xmlns:cc="http://creativecommons.org/ns#"
   xmlns:rdf="http://www.w3.org/1999/02/22-rdf-syntax-ns#"
   xmlns:svg="http://www.w3.org/2000/svg"
   xmlns="http://www.w3.org/2000/svg"
   xmlns:sodipodi="http://sodipodi.sourceforge.net/DTD/sodipodi-0.dtd"
   xmlns:inkscape="http://www.inkscape.org/namespaces/inkscape"
   width="16"
   height="16"
   viewBox="0 0 16 16"
   id="svg2"
   version="1.1"
   inkscape:version="0.91 r"
   sodipodi:docname="x-office-spreadsheet-symbolic.svg">
  <metadata
     id="metadata16">
    <rdf:RDF>
      <cc:Work
         rdf:about="">
        <dc:format>image/svg+xml</dc:format>
        <dc:type
           rdf:resource="http://purl.org/dc/dcmitype/StillImage" />
        <dc:title />
      </cc:Work>
    </rdf:RDF>
  </metadata>
  <defs
     id="defs14" />
  <sodipodi:namedview
     pagecolor="#ffffff"
     bordercolor="#666666"
     borderopacity="1"
     objecttolerance="10"
     gridtolerance="10"
     guidetolerance="10"
     inkscape:pageopacity="0"
     inkscape:pageshadow="2"
     inkscape:window-width="1920"
     inkscape:window-height="1056"
     id="namedview12"
     showgrid="true"
     inkscape:zoom="29.5"
     inkscape:cx="2.3150826"
     inkscape:cy="4.0085417"
     inkscape:window-x="0"
     inkscape:window-y="24"
     inkscape:window-maximized="1"
     inkscape:current-layer="svg2">
    <inkscape:grid
       type="xygrid"
       id="grid3004" />
  </sodipodi:namedview>
  <path
     style="fill:#bebebe;fill-opacity:1"
     d="M 2.6679688 1 C 2.3242188 1 2 1.3386309 2 1.6972656 L 2 14.302734 C 2 14.640991 2.3437498 15 2.6679688 15 L 13.332031 15 C 13.65625 15 14 14.640991 14 14.302734 L 14 5 L 10 1 L 2.6679688 1 z M 3 2 L 10 2 L 10 4.3828125 C 10 4.6819115 10.337417 5.1155828 10.613281 5 L 13 5 L 13 14 L 3 14 L 3 2 z M 4 6 L 4 13 L 12 13 L 12 6 L 4 6 z M 4.9980469 7 L 7 7 L 7.0019531 8.0527344 L 5 8.0527344 L 4.9980469 7 z M 8 7 L 11 7 L 11 8 L 8 8 L 8 7 z M 5 9 L 7 9 L 7 10 L 5 10 L 5 9 z M 8 9 L 11 9 L 11 10 L 8 10 L 8 9 z M 5 11 L 7 11 L 7 12 L 5 12 L 5 11 z M 8 11 L 11 11 L 11 12 L 8 12 L 8 11 z "
     id="path4-2" />
</svg>

<svg xmlns="http://www.w3.org/2000/svg" viewBox="0 0 16 16">
 <path d="m 2.668 1 c -0.344 0 -0.668 0.339 -0.668 0.697 l 0 12.605 c 0 0.338 0.344 0.697 0.668 0.697 l 10.664 0 c 0.324 0 0.668 -0.359 0.668 -0.697 l 0 -9.303 l -4 -4 l -7.332 0 z m 0.332 1 l 7 0 l 0 2.383 c 0 0.299 0.337 0.733 0.613 0.617 l 2.387 0 l 0 9 l -10 0 l 0 -12 z m 1 4 l 0 7 l 8 0 l 0 -7 l -8 0 z m 0.998 1 l 2 0 l 0.002 1.053 l -2 0 l -0.002 -1.053 z m 3 0 l 3 0 l 0 1 l -3 0 l 0 -1 z m -3 2 l 2 0 l 0 1 l -2 0 l 0 -1 z m 3 0 l 3 0 l 0 1 l -3 0 l 0 -1 z m -3 2 l 2 0 l 0 1 l -2 0 l 0 -1 z m 3 0 l 3 0 l 0 1 l -3 0 l 0 -1 z" style="fill:#bebebe;fill-opacity:1"/>
</svg>
